svg/logos/bxl-react.svg

<svg xmlns="http://www.w3.org/2000/svg" width="24" height="24"><circle cx="12" cy="11.245" r="1.785"/><path d="m7.002 14.794-.395-.101c-2.934-.741-4.617-2.001-4.617-3.452 0-1.452 1.684-2.711 4.617-3.452l.395-.1.111.391a19.507 19.507 0 0 0 1.136 2.983l.085.178-.085.178c-.46.963-.841 1.961-1.136 2.985l-.111.39zm-.577-6.095c-2.229.628-3.598 1.586-3.598 2.542 0 .954 1.368 1.913 3.598 2.54.273-.868.603-1.717.985-2.54a20.356 20.356 0 0 1-.985-2.542zm10.572 6.095-.11-.392a19.628 19.628 0 0 0-1.137-2.984l-.085-.177.085-.179c.46-.961.839-1.96 1.137-2.984l.11-.39.395.1c2.935.741 4.617 2 4.617 3.453 0 1.452-1.683 2.711-4.617 3.452l-.395.101zm-.41-3.553c.4.866.733 1.718.987 2.54 2.23-.627 3.599-1.586 3.599-2.54 0-.956-1.368-1.913-3.599-2.542a20.683 20.683 0 0 1-.987 2.542z"/><path d="m6.419 8.695-.11-.39c-.826-2.908-.576-4.991.687-5.717 1.235-.715 3.222.13 5.303 2.265l.284.292-.284.291a19.718 19.718 0 0 0-2.02 2.474l-.113.162-.196.016a19.646 19.646 0 0 0-3.157.509l-.394.098zm1.582-5.529c-.224 0-.422.049-.589.145-.828.477-.974 2.138-.404 4.38.891-.197 1.79-.338 2.696-.417a21.058 21.058 0 0 1 1.713-2.123c-1.303-1.267-2.533-1.985-3.416-1.985zm7.997 16.984c-1.188 0-2.714-.896-4.298-2.522l-.283-.291.283-.29a19.827 19.827 0 0 0 2.021-2.477l.112-.16.194-.019a19.473 19.473 0 0 0 3.158-.507l.395-.1.111.391c.822 2.906.573 4.992-.688 5.718a1.978 1.978 0 0 1-1.005.257zm-3.415-2.82c1.302 1.267 2.533 1.986 3.415 1.986.225 0 .423-.05.589-.145.829-.478.976-2.142.404-4.384-.89.198-1.79.34-2.698.419a20.526 20.526 0 0 1-1.71 2.124z"/><path d="m17.58 8.695-.395-.099a19.477 19.477 0 0 0-3.158-.509l-.194-.017-.112-.162A19.551 19.551 0 0 0 11.7 5.434l-.283-.291.283-.29c2.08-2.134 4.066-2.979 5.303-2.265 1.262.727 1.513 2.81.688 5.717l-.111.39zm-3.287-1.421c.954.085 1.858.228 2.698.417.571-2.242.425-3.903-.404-4.381-.824-.477-2.375.253-4.004 1.841.616.67 1.188 1.378 1.71 2.123zM8.001 20.15a1.983 1.983 0 0 1-1.005-.257c-1.263-.726-1.513-2.811-.688-5.718l.108-.391.395.1c.964.243 2.026.414 3.158.507l.194.019.113.16c.604.878 1.28 1.707 2.02 2.477l.284.29-.284.291c-1.583 1.627-3.109 2.522-4.295 2.522zm-.993-5.362c-.57 2.242-.424 3.906.404 4.384.825.47 2.371-.255 4.005-1.842a21.17 21.17 0 0 1-1.713-2.123 20.692 20.692 0 0 1-2.696-.419z"/><path d="M12 15.313c-.687 0-1.392-.029-2.1-.088l-.196-.017-.113-.162a25.697 25.697 0 0 1-1.126-1.769 26.028 26.028 0 0 1-.971-1.859l-.084-.177.084-.179c.299-.632.622-1.252.971-1.858.347-.596.726-1.192 1.126-1.77l.113-.16.196-.018a25.148 25.148 0 0 1 4.198 0l.194.019.113.16a25.136 25.136 0 0 1 2.1 3.628l.083.179-.083.177a24.742 24.742 0 0 1-2.1 3.628l-.113.162-.194.017c-.706.057-1.412.087-2.098.087zm-1.834-.904c1.235.093 2.433.093 3.667 0a24.469 24.469 0 0 0 1.832-3.168 23.916 23.916 0 0 0-1.832-3.168 23.877 23.877 0 0 0-3.667 0 23.743 23.743 0 0 0-1.832 3.168 24.82 24.82 0 0 0 1.832 3.168z"/></svg>

<svg xmlns="http://www.w3.org/2000/svg" width="24" height="24" viewBox="0 0 24 24"><circle cx="12" cy="11.245" r="1.785"/><path d="M7.002,14.794l-0.395-0.101c-2.934-0.741-4.617-2.001-4.617-3.452c0-1.452,1.684-2.711,4.617-3.452l0.395-0.1L7.113,8.08 c0.297,1.023,0.676,2.022,1.136,2.983l0.085,0.178l-0.085,0.178c-0.46,0.963-0.841,1.961-1.136,2.985L7.002,14.794L7.002,14.794z M6.425,8.699c-2.229,0.628-3.598,1.586-3.598,2.542c0,0.954,1.368,1.913,3.598,2.54c0.273-0.868,0.603-1.717,0.985-2.54 C7.025,10.416,6.696,9.567,6.425,8.699z M16.997,14.794l-0.11-0.392c-0.298-1.024-0.677-2.022-1.137-2.984l-0.085-0.177 l0.085-0.179c0.46-0.961,0.839-1.96,1.137-2.984l0.11-0.39l0.395,0.1c2.935,0.741,4.617,2,4.617,3.453 c0,1.452-1.683,2.711-4.617,3.452L16.997,14.794z M16.587,11.241c0.4,0.866,0.733,1.718,0.987,2.54 c2.23-0.627,3.599-1.586,3.599-2.54c0-0.956-1.368-1.913-3.599-2.542C17.301,9.567,16.972,10.416,16.587,11.241L16.587,11.241z"/><path d="M6.419,8.695l-0.11-0.39C5.483,5.397,5.733,3.314,6.996,2.588c1.235-0.715,3.222,0.13,5.303,2.265l0.284,0.292 l-0.284,0.291c-0.739,0.769-1.415,1.596-2.02,2.474l-0.113,0.162L9.97,8.088C8.907,8.171,7.851,8.342,6.813,8.597L6.419,8.695 L6.419,8.695z M8.001,3.166c-0.224,0-0.422,0.049-0.589,0.145C6.584,3.788,6.438,5.449,7.008,7.691 c0.891-0.197,1.79-0.338,2.696-0.417c0.525-0.745,1.097-1.453,1.713-2.123C10.114,3.884,8.884,3.166,8.001,3.166L8.001,3.166z M15.998,20.15L15.998,20.15c-1.188,0-2.714-0.896-4.298-2.522l-0.283-0.291l0.283-0.29c0.739-0.77,1.416-1.599,2.021-2.477 l0.112-0.16l0.194-0.019c1.065-0.082,2.122-0.252,3.158-0.507l0.395-0.1l0.111,0.391c0.822,2.906,0.573,4.992-0.688,5.718 C16.698,20.066,16.352,20.155,15.998,20.15L15.998,20.15z M12.583,17.33c1.302,1.267,2.533,1.986,3.415,1.986l0,0 c0.225,0,0.423-0.05,0.589-0.145c0.829-0.478,0.976-2.142,0.404-4.384c-0.89,0.198-1.79,0.34-2.698,0.419 C13.771,15.951,13.199,16.661,12.583,17.33z"/><path d="M17.58,8.695l-0.395-0.099c-1.036-0.256-2.093-0.426-3.158-0.509l-0.194-0.017l-0.112-0.162 c-0.604-0.878-1.281-1.705-2.021-2.474l-0.283-0.291L11.7,4.853c2.08-2.134,4.066-2.979,5.303-2.265 c1.262,0.727,1.513,2.81,0.688,5.717L17.58,8.695L17.58,8.695z M14.293,7.274c0.954,0.085,1.858,0.228,2.698,0.417 c0.571-2.242,0.425-3.903-0.404-4.381c-0.824-0.477-2.375,0.253-4.004,1.841C13.199,5.821,13.771,6.529,14.293,7.274z M8.001,20.15 c-0.353,0.005-0.699-0.084-1.005-0.257c-1.263-0.726-1.513-2.811-0.688-5.718l0.108-0.391l0.395,0.1 c0.964,0.243,2.026,0.414,3.158,0.507l0.194,0.019l0.113,0.16c0.604,0.878,1.28,1.707,2.02,2.477l0.284,0.29l-0.284,0.291 C10.713,19.255,9.187,20.15,8.001,20.15L8.001,20.15z M7.008,14.788c-0.57,2.242-0.424,3.906,0.404,4.384 c0.825,0.47,2.371-0.255,4.005-1.842c-0.616-0.67-1.188-1.379-1.713-2.123C8.798,15.128,7.898,14.986,7.008,14.788L7.008,14.788z"/><path d="M12,15.313c-0.687,0-1.392-0.029-2.1-0.088l-0.196-0.017l-0.113-0.162c-0.398-0.572-0.774-1.163-1.126-1.769 c-0.349-0.607-0.672-1.226-0.971-1.859L7.41,11.241l0.084-0.179c0.299-0.632,0.622-1.252,0.971-1.858 c0.347-0.596,0.726-1.192,1.126-1.77l0.113-0.16L9.9,7.256c1.397-0.117,2.801-0.117,4.198,0l0.194,0.019l0.113,0.16 c0.799,1.149,1.503,2.362,2.1,3.628l0.083,0.179l-0.083,0.177c-0.597,1.268-1.299,2.481-2.1,3.628l-0.113,0.162l-0.194,0.017 C13.392,15.283,12.686,15.313,12,15.313L12,15.313z M10.166,14.409c1.235,0.093,2.433,0.093,3.667,0 c0.69-1.01,1.301-2.068,1.832-3.168c-0.529-1.102-1.142-2.161-1.832-3.168c-1.221-0.094-2.446-0.094-3.667,0 c-0.689,1.007-1.305,2.065-1.832,3.168C8.865,12.341,9.479,13.399,10.166,14.409L10.166,14.409z"/></svg>
